docs/images/icons/cursor.svg

<svg width="20" height="20" fill="none" xmlns="http://www.w3.org/2000/svg"><path d="M-.11-.71 18.7 5.56c.1.04.18.1.24.18.06.08.1.18.1.28.01.11-.02.21-.08.29-.06.09-.14.15-.23.19L10 9.99l-4.43 8.86c-.05.09-.12.16-.2.21-.09.05-.19.07-.29.06a.57.57 0 0 1-.28-.11.598.598 0 0 1-.16-.25L-.75-.09a.615.615 0 0 1 0-.27c.03-.09.07-.17.14-.23.07-.07.15-.11.24-.13.09-.02.18-.01.26.01Z" fill="#fff"/><path d="m10 9.99 8.73-3.49c.09-.04.17-.1.23-.19.06-.08.09-.18.08-.29 0-.1-.04-.2-.1-.28a.546.546 0 0 0-.24-.18L-.11-.71a.566.566 0 0 0-.26-.01c-.09.02-.17.06-.24.13-.07.06-.11.14-.14.23-.02.09-.02.18 0 .27l5.39 18.85c.03.1.09.18.16.25.08.06.18.1.28.11.1.01.2-.01.29-.06.08-.05.15-.12.2-.21L10 9.99Zm7.09-3.91L.48.54l4.77 16.71 4.02-8.04 7.82-3.13Z" fill="#fff" fill-rule="evenodd"/></svg>

<svg width="20.000000" height="20.000000" viewBox="0 0 20 20" fill="none" xmlns="http://www.w3.org/2000/svg" xmlns:xlink="http://www.w3.org/1999/xlink">
	
	<defs/>
	<path id="Vector" d="M-0.11 -0.71L18.7 5.56C18.8 5.6 18.88 5.66 18.94 5.74C19 5.82 19.04 5.92 19.04 6.02C19.05 6.13 19.02 6.23 18.96 6.31C18.9 6.4 18.82 6.46 18.73 6.5L10 9.99L5.57 18.85C5.52 18.94 5.45 19.01 5.37 19.06C5.28 19.11 5.18 19.13 5.08 19.12C4.98 19.11 4.88 19.07 4.8 19.01C4.73 18.94 4.67 18.86 4.64 18.76L-0.75 -0.09C-0.77 -0.18 -0.77 -0.27 -0.75 -0.36C-0.72 -0.45 -0.68 -0.53 -0.61 -0.59C-0.54 -0.66 -0.46 -0.7 -0.37 -0.72C-0.28 -0.74 -0.19 -0.73 -0.11 -0.71Z" fill="#fff" fill-opacity="1.000000" fill-rule="nonzero"/>
	<path id="Vector" d="M10 9.99L18.73 6.5C18.82 6.46 18.9 6.4 18.96 6.31C19.02 6.23 19.05 6.13 19.04 6.02C19.04 5.92 19 5.82 18.94 5.74C18.88 5.66 18.8 5.6 18.7 5.56L-0.11 -0.71C-0.19 -0.73 -0.28 -0.74 -0.37 -0.72C-0.46 -0.7 -0.54 -0.66 -0.61 -0.59C-0.68 -0.53 -0.72 -0.45 -0.75 -0.36C-0.77 -0.27 -0.77 -0.18 -0.75 -0.09L4.64 18.76C4.67 18.86 4.73 18.94 4.8 19.01C4.88 19.07 4.98 19.11 5.08 19.12C5.18 19.13 5.28 19.11 5.37 19.06C5.45 19.01 5.52 18.94 5.57 18.85L10 9.99ZM17.09 6.08L0.48 0.54L5.25 17.25L9.27 9.21L17.09 6.08Z" fill="#fff" fill-opacity="1.000000" fill-rule="evenodd"/>
</svg>
